static/assets/images/tokens/deth.svg

<svg xmlns="http://www.w3.org/2000/svg" fill="none" viewBox="0 0 256 256"><path fill="#000" d="M128 256c70.692 0 128-57.308 128-128S198.692 0 128 0 0 57.308 0 128s57.308 128 128 128"/><path fill="#00ED76" d="M128 256c70.692 0 128-57.308 128-128S198.692 0 128 0 0 57.308 0 128s57.308 128 128 128"/><path fill="#06330B" d="M127.999 29v139.518l62-36.541z"/><path fill="#0F8C58" d="M128 29 66 131.977l62 36.541z"/><path fill="#06330B" d="M128 180.381V231l62-87.317z"/><path fill="#0F8C58" d="M128 231v-50.619l-62-36.698z"/><path fill="#021406" d="m128 168.518 62-36.54-62-28.315z"/><path fill="#06330B" d="m66 131.977 62 36.541v-64.855z"/></svg>

<svg width="256" height="256" viewBox="0 0 256 256" fill="none" xmlns="http://www.w3.org/2000/svg">
<path d="M128 256C198.692 256 256 198.692 256 128C256 57.3075 198.692 0 128 0C57.3075 0 0 57.3075 0 128C0 198.692 57.3075 256 128 256Z" fill="black"/>
<path d="M128 256C198.692 256 256 198.692 256 128C256 57.3075 198.692 0 128 0C57.3075 0 0 57.3075 0 128C0 198.692 57.3075 256 128 256Z" fill="#00ED76"/>
<path d="M127.999 29L127.999 168.518L189.999 131.977L127.999 29Z" fill="#06330B"/>
<path d="M128 29L66 131.977L128 168.518V103.663V29Z" fill="#0F8C58"/>
<path d="M128 180.381L128 231L190 143.683L128 180.381Z" fill="#06330B"/>
<path d="M128 231L128 180.381L66 143.683L128 231Z" fill="#0F8C58"/>
<path d="M128 168.518L190 131.978L128 103.663V168.518Z" fill="#021406"/>
<path d="M66 131.977L128 168.518V103.663L66 131.977Z" fill="#06330B"/>
</svg>
